icons/forestadmin.svg

<?xml version="1.0" encoding="UTF-8"?>
<svg width="256px" height="256px" viewBox="0 0 256 256" version="1.1" xmlns="http://www.w3.org/2000/svg" xmlns:xlink="http://www.w3.org/1999/xlink" preserveAspectRatio="xMidYMid">
    <defs>
        <path d="M8,0 L248,0 C252.418278,0 256,3.581722 256,8 L256,248 C256,252.418278 252.418278,256 248,256 L8,256 C3.581722,256 0,252.418278 0,248 L0,8 C0,3.581722 3.581722,0 8,0 Z" id="path-1"></path>
    </defs>
    <g>
        <mask id="mask-2" fill="white">
            <use xlink:href="#path-1"></use>
        </mask>
        <use fill="#9B183D" xlink:href="#path-1"></use>
        <rect fill="#9B183D" mask="url(#mask-2)" x="0" y="-1.42108547e-14" width="256" height="256"></rect>
        <rect fill="#EE0036" mask="url(#mask-2)" x="128" y="0" width="128" height="128"></rect>
        <rect fill="#702440" mask="url(#mask-2)" x="1.13686838e-13" y="128" width="128" height="128"></rect>
        <path d="M144.835747,86.902024 C175.704311,84.5761699 194.363443,69.8768146 200.177618,50.285712 C159.440623,69.0558604 108.608543,46.0932556 98.9878792,87.5673366 L94.0558863,109.677202 C102.635487,96.3654674 113.968293,89.2278781 144.835747,86.902024 Z M128.785049,90.6670146 C113.613532,92.8525723 101.444098,99.8904182 94.614416,112.251863 C92.4156288,116.229491 91.6434429,120.504151 91.6434429,120.504151 L88.152494,136.153797 C92.5256237,128.35528 100.346371,118.388742 120.843196,113.64606 C121.304286,111.164564 124.103044,96.9398064 128.785049,90.6670146 Z M84.9670866,150.433688 L79.6351123,174.337813 C93.7622334,147.439233 124.164153,142.218665 127.918422,141.433881 C154.392747,135.897646 167.138821,122.752514 172.207474,105.670309 C149.107437,118.733236 95.1877225,102.330593 84.9670866,150.433688 Z M77.0671207,185.855177 L73.1428587,203.448149 C104.451403,201.685673 107.904575,171.597537 113.013227,147.695602 C103.272568,151.095602 81.805789,164.419394 77.0671207,185.855177 Z" fill="#FFFFFF" mask="url(#mask-2)"></path>
    </g>
</svg>

<svg xmlns="http://www.w3.org/2000/svg" xmlns:xlink="http://www.w3.org/1999/xlink" viewBox="0 0 256 256">
  <defs>
    <path id="a" d="M8 0h240a8 8 0 0 1 8 8v240a8 8 0 0 1-8 8H8a8 8 0 0 1-8-8V8a8 8 0 0 1 8-8z"/>
  </defs>
  <mask id="b" fill="#fff">
    <use width="100%" height="100%" xlink:href="#a"/>
  </mask>
  <use width="100%" height="100%" fill="#9b183d" xlink:href="#a"/>
  <path fill="#9b183d" d="M0 0h256v256H0z" mask="url(#b)"/>
  <path fill="#ee0036" d="M128 0h128v128H128z" mask="url(#b)"/>
  <path fill="#702440" d="M0 128h128v128H0z" mask="url(#b)"/>
  <path fill="#fff" d="M144.836 86.902c30.868-2.326 49.527-17.025 55.342-36.616-40.737 18.77-91.57-4.193-101.19 37.281l-4.932 22.11c8.58-13.312 19.912-20.45 50.78-22.775zm-16.051 3.765c-15.171 2.186-27.34 9.223-34.17 21.585-2.2 3.977-2.972 8.252-2.972 8.252l-3.49 15.65c4.373-7.799 12.193-17.765 32.69-22.508.461-2.481 3.26-16.706 7.942-22.979zm-43.818 59.767-5.332 23.904c14.127-26.899 44.53-32.12 48.283-32.904 26.475-5.536 39.22-18.681 44.29-35.764-23.1 13.063-77.02-3.34-87.24 44.764zm-7.9 35.421-3.924 17.593c31.308-1.762 34.762-31.85 39.87-55.752-9.74 3.4-31.207 16.723-35.946 38.16z" mask="url(#b)"/>
</svg>
